svgs/regular/file-arrow-up.svg

<svg xmlns="http://www.w3.org/2000/svg" viewBox="0 0 384 512"><!--! Font Awesome Pro 6.0.0-alpha3 by @fontawesome - https://fontawesome.com License - https://fontawesome.com/license (Commercial License) --><path d="M175 223l-80 80c-9.375 9.375-9.375 24.56 0 33.94s24.56 9.375 33.94 0L168 297.9V400c0 13.25 10.75 24 24 24s24-10.75 24-24V297.9l39.03 39.03C259.7 341.7 265.8 344 272 344s12.28-2.344 16.97-7.031c9.375-9.375 9.375-24.56 0-33.94l-80-80C199.6 213.7 184.4 213.7 175 223zM365.3 93.38l-74.63-74.64C278.6 6.742 262.3 0 245.4 0H64C28.65 0 0 28.65 0 64l.0065 384c0 35.34 28.65 64 64 64H320c35.2 0 64-28.8 64-64V138.6C384 121.7 377.3 105.4 365.3 93.38zM336 448c0 8.836-7.164 16-16 16H64.02c-8.838 0-16-7.164-16-16L48 64.13c0-8.836 7.164-16 16-16h160L224 128c0 17.67 14.33 32 32 32h79.1V448z"/></svg>

<svg xmlns="http://www.w3.org/2000/svg" viewBox="0 0 384 512"><!-- Font Awesome Pro 6.0.0-alpha2 by @fontawesome - https://fontawesome.com License - https://fontawesome.com/license (Commercial License) --><path d="M175.031 223.031L95.031 303.031C85.656 312.406 85.656 327.594 95.031 336.969S119.594 346.344 128.969 336.969L168 297.938V400C168 413.25 178.75 424 192 424S216 413.25 216 400V297.938L255.031 336.969C259.719 341.656 265.844 344 272 344S284.281 341.656 288.969 336.969C298.344 327.594 298.344 312.406 288.969 303.031L208.969 223.031C199.594 213.656 184.406 213.656 175.031 223.031ZM365.256 93.383L290.627 18.746C278.625 6.742 262.348 0 245.373 0H64C28.654 0 0 28.652 0 64L0.02 448C0.02 483.344 28.674 512 64.02 512H320C355.199 512 384 483.199 384 448V138.641C384 121.664 377.258 105.383 365.256 93.383ZM336.002 448C336.002 456.836 328.838 464 320.002 464H64.018C55.18 464 48.018 456.836 48.018 448L48 64.125C48 55.289 55.164 48.125 64 48.125H224.008V128C224.008 145.672 238.334 160 256.008 160H336.002V448Z"/></svg>
